packages/icons/src/components/ProductIcon/assets/cloud-essentials.svg

<svg width="64" height="64" viewBox="0 0 64 64" fill="none" xmlns="http://www.w3.org/2000/svg">
<path d="M0 16C0 7.16344 7.16344 0 16 0H48C56.8366 0 64 7.16344 64 16V48C64 56.8366 56.8366 64 48 64H16C7.16344 64 0 56.8366 0 48V16Z" fill="#F1EEFC" class="fillWeak"/>
<path fill-rule="evenodd" clip-rule="evenodd" d="M48 2H16C8.26801 2 2 8.26801 2 16V48C2 55.732 8.26801 62 16 62H48C55.732 62 62 55.732 62 48V16C62 8.26801 55.732 2 48 2ZM16 0C7.16344 0 0 7.16344 0 16V48C0 56.8366 7.16344 64 16 64H48C56.8366 64 64 56.8366 64 48V16C64 7.16344 56.8366 0 48 0H16Z" fill="#F1EEFC" class="fillWeak"/>
<path fill-rule="evenodd" clip-rule="evenodd" d="M40.3076 25.9766L40.3809 26.0205L46.8311 29.3711L32.167 36.9902L17.2041 29.3711L23.499 26.167C22.5559 26.0426 21.7375 25.6799 21.0654 25.1602L14.5459 28.4805C14.211 28.6512 14 28.9961 14 29.3721V48.6064C14.0002 48.9882 14.2176 49.3371 14.5605 49.5049L31.7324 57.8984C32.012 58.035 32.3397 58.0333 32.6182 57.8945L49.4463 49.501C49.7853 49.3318 49.9998 48.9854 50 48.6064V29.3721C50 28.9989 49.792 28.6565 49.4609 28.4844L41.3027 24.2451L41.209 24.2031C41.1948 24.1975 41.1803 24.1924 41.166 24.1875L40.3076 25.9766ZM31.1719 38.7275V55.3975L16 47.9814V31.0029L31.1719 38.7275ZM48 47.9873L33.1719 55.3838V38.7217L48 31.0176V47.9873Z" fill="#521094" class="fill"/>
<path d="M29.4287 4.92336C29.7974 4.15523 30.5901 3.88076 31.2637 4.04641C31.9317 4.21086 32.5 4.80967 32.5 5.64406V14.7837H38.7637C40.4829 14.7838 41.4699 16.6182 40.7695 18.0777L33.5713 33.0757C33.2026 33.8438 32.4099 34.1183 31.7363 33.9527C31.0683 33.7882 30.5 33.1894 30.5 32.355V23.2154H24.2363C22.5171 23.2153 21.5301 21.3809 22.2305 19.9214L29.4287 4.92336ZM32.5 30.6861L38.9668 17.2124C39.0178 17.1059 39.0075 16.9939 38.9541 16.9038C38.9016 16.8154 38.8322 16.7838 38.7637 16.7837H32.4258C31.3241 16.7835 30.5001 15.8648 30.5 14.8189V7.31203L24.0332 20.7866C23.9822 20.8931 23.9925 21.0051 24.0459 21.0952C24.0983 21.1836 24.1678 21.2153 24.2363 21.2154H30.5742C31.6759 21.2156 32.4998 22.1342 32.5 23.1802V30.6861Z" fill="#A060F6" class="fillStrong"/>
</svg>

<svg xmlns="http://www.w3.org/2000/svg" width="64" height="64" fill="none" viewBox="0 0 64 64">
    <path fill="#f1eefc" d="M0 16C0 7.163 7.163 0 16 0h32c8.837 0 16 7.163 16 16v32c0 8.837-7.163 16-16 16H16C7.163 64 0 56.837 0 48z" class="fillWeak"/>
    <path fill="#f1eefc" fill-rule="evenodd" d="M48 2H16C8.268 2 2 8.268 2 16v32c0 7.732 6.268 14 14 14h32c7.732 0 14-6.268 14-14V16c0-7.732-6.268-14-14-14M16 0C7.163 0 0 7.163 0 16v32c0 8.837 7.163 16 16 16h32c8.837 0 16-7.163 16-16V16c0-8.837-7.163-16-16-16z" class="fillWeak" clip-rule="evenodd"/>
    <path fill="#521094" fill-rule="evenodd" d="m40.308 25.977.073.043 6.45 3.351-14.664 7.62-14.963-7.62 6.295-3.204a5 5 0 0 1-2.434-1.007l-6.52 3.32a1 1 0 0 0-.545.892v19.234c0 .382.218.731.56.899l17.172 8.393a1 1 0 0 0 .886-.004l16.828-8.393a1 1 0 0 0 .554-.895V29.372a1 1 0 0 0-.54-.888l-8.157-4.239-.094-.042-.043-.015zm-9.136 12.75v16.67L16 47.982V31.003zM48 47.988l-14.828 7.397V38.722L48 31.018z" class="fill" clip-rule="evenodd"/>
    <path fill="#a060f6" d="M29.429 4.923a1.596 1.596 0 0 1 1.835-.877A1.62 1.62 0 0 1 32.5 5.644v9.14h6.264c1.719 0 2.706 1.834 2.005 3.294l-7.198 14.998a1.596 1.596 0 0 1-1.835.877 1.62 1.62 0 0 1-1.236-1.598v-9.14h-6.264c-1.719 0-2.706-1.834-2.006-3.294zM32.5 30.686l6.467-13.474a.32.32 0 0 0-.013-.308c-.052-.089-.122-.12-.19-.12h-6.338c-1.102 0-1.926-.92-1.926-1.965V7.312l-6.467 13.475a.32.32 0 0 0 .013.308c.052.089.122.12.19.12h6.338c1.102 0 1.926.92 1.926 1.965z" class="fillStrong"/>
</svg>
